X:1
T:Gwalchmai, 74.74 D
T:Gwalchmai, 74.74 D
T:Joseph David Jones, 1868
T:Public Domain Courtesy of the Cyber Hymnal™
C:Joseph David Jones, 1868
Z:Public Domain
Z:Courtesy of the Cyber Hymnal™
%%score ( 1 2 ) ( 3 4 )
L:1/8
Q:1/4=110
M:none
K:G
V:1 treble 
V:2 treble 
V:3 bass 
V:4 bass 
V:1
 [DB]2 [Fd]2 G2 ([EA][GB]) [Dc]2 [DB]2 [DA]4 | [DB]2 [Ec]2 A4 [B,G]4 | %2
 [DB]2 [Fd]2 G2 ([EA][GB]) [Dc]2 [DB]2 [DA]4 | [DF]2 [DG]2 E4 D4 | %4
 D2 [=DG]2 [DF]2 =D2 [B,G]2 [EA]2 [^DB]4 | [DB]2 [Dd]2 (d2 ^c2) [Fd]4 | %6
 [DB]2 [Fd]2 G2 ([EA][GB]) [Dc]2 [DB]2 [DA]4 | [DB]2 [Ec]2 A4 [B,G]4 |] %8
V:2
 x4 (GD) x10 | x4 (D3 C) x4 | x4 (GD) x10 | x4 (D2 ^C2) D4 | ^D2 x2 ^D2 x10 | x4 G4 x4 | %6
 x4 (GD) x10 | x4 (D3 C) x4 |] %8
V:3
 G,2 [D,A,]2 ([E,C][D,B,]) ([C,A,][B,,G,]) [A,,F,]2 [G,,G,]2 [D,F,]4 | %1
 G,2 [C,G,]2 (G,2 F,2) [G,,G,]4 | %2
 G,2 [D,A,]2 ([E,C][D,B,]) ([C,A,][B,,G,]) [A,,F,]2 [G,,G,]2 [D,F,]4 | %3
 [D,A,]2 [G,,B,]2 (A,3 G,) [D,F,]4 | G,2 [G,,B,]2 [D,A,]2 [B,,G,]2 [E,G,]2 [C,E,]2 [B,,F,]4 | %5
 G,2 [F,A,]2 (B,2 A,G,) [D,A,]4 | %6
 G,2 [D,A,]2 ([E,C][D,B,]) ([C,A,][B,,G,]) [A,,F,]2 [G,,G,]2 [D,F,]4 | %7
 G,2 [C,G,]2 (G,2 F,2) [G,,G,]4 |] %8
V:4
 G,2 x14 | G,2 D,4 x6 | G,2 x14 | x4 A,,4 x4 | G,2 x14 | G,2 E,4 x6 | G,2 x14 | G,2 D,4 x6 |] %8

